!!!COM: Mozart	
!!!OTL: 12 Variations on "Ah Vous dirais-je, Maman" for the Piano,	
!!!Variation: Theme c	
**kern	**kern	**chords	**function	**comments
*Ilh	*Irh	*	*	*
*clefF4	*clefG2	*	*	*
*k[]	*k[]	*	*	*
*M2/4	*M2/4	*M2/4	*M2/4	*M2/4
*C:	*C:	*C:	*C:	*C:
=-	=-	=-	=-	=-
4C	4cc	2I	T	.
4c	4cc	.	.	.
=	=	=	=	=
4e	4gg	2I6	.	.
4c	4gg	.	.	.
=	=	=	=	=
4f	4aa	2IV	.	.
4c	4aa	.	.	.
=	=	=	=	=
4e	4gg	2I6	.	T
4c	4gg	.	.	.
=	=	=	=	=
4d	4ff	4ii	.	PD
4B	4ff	4viio	.	D
=	=	=	=	=
4c	4ee	4I	.	T
4A	4ee	4vi	.	.
=	=	=	=	=
4F	(4dd	4ii6	PD	.
.	16eeQ	.	.	.
.	16ddQ	.	.	.
.	16ccQ	.	.	.
4G	8.ddL	4V	D	.
.	16eeJk	.	.	.
=	=	=	=	=
2C	2cc)	2I	T	.
*-	*-	*-	*-	*-
